**kern	**kern	**kern
*staff3	*staff2	*staff1
*tb32	*tb32	*tb32
*clefF4	*clefF4	*clefG2
*k[f#c#g#]	*k[f#c#g#]	*k[f#c#g#]
*M2/4	*M2/4	*M2/4
*A:	*A:	*A:
8BJ	8r	8bb'
=161	=161	=161
16ALL	2r	(4cc#
16e	.	.
16c#	.	.
16eJJ	.	.
16BLL	.	4dd#
16f#	.	.
16A	.	.
16f#JJ	.	.
=162	=162	=162
16G#LL	2r	4ee')
16B	.	.
16F#	.	.
16BJJ	.	.
16G#LL	.	8r
16B	.	.
16E	.	(8b
16BJJ	.	.
=163	=163	=163
16ALL	2r	4cc#
16e	.	.
16c#	.	.
16eJJ	.	.
16BLL	.	8ddL
16f#	.	.
16A	.	8dd#J
16f#JJ	.	.
=164	=164	=164
16G#LL	2r	8.eeL
16B	.	.
16F#	.	.
16BJJ	.	16ff#Jk)
16ELL	.	8gg#'L
16B	.	.
16G#	.	8b'J
16BJJ	.	.
=165	=165	=165
16ALL	2r	(4cc#
16e	.	.
16c#	.	.
16eJJ	.	.
16BLL	.	4dd#
16f#	.	.
16A	.	.
16f#JJ	.	.
=166	=166	=166
16G#LL	2r	4ee')
16B	.	.
16F#	.	.
16BJJ	.	.
16G#LL	.	8r
16B	.	.
16E	.	(8b
16BJJ	.	.
=167	=167	=167
16ALL	2r	4cc#
16e	.	.
16c#	.	.
16eJJ	.	.
16BLL	.	8ddL
16f#	.	.
16A	.	8dd#J
16f#JJ	.	.
=168	=168	=168
16G#LL	2r	4ee
16B	.	.
16E	.	.
16BJJ	.	.
16D#LL	.	16gg#LL
16B	.	16ff#
16A	.	16ee
16BJJ	.	16ff#JJ
=169	=169	=169
16ELL	2r	16aaLL
16B	.	16gg#
16G#	.	16bb
16BJJ	.	16eeJJ)
16BBLL	.	(16eeLL
16B	.	16dd#
16F#	.	16ff#
16BJJ	.	16bJJ)
=170	=170	=170
2r;	2r;	2r;
=171	=171	=171
8r	2r	[2ee
(8E	.	.
8G#L	.	.
8BJ	.	.
=172	=172	=172
*-	*-	*-
